X:1
T:James Gibb editions
T:Die Gottseligkeit - Schütz
T:#
%%score [ 1 2 3 ] 4
L:1/8
Q:1/4=180
M:none
K:G
V:1 treble nm="Soprano I"
V:2 treble nm="Soprano II"
V:3 bass nm="Bass"
V:4 bass nm="Continuo"
V:1
"^Die Gottseligkeit, SWV 299""^Heinrich Schütz\n(1585-1672)""^1 Timothy 4:8b" B6 B2 c6 c2 | %1
w: Die Gott- se- lig-|
 B8 E2 F2 G2 E2 | F4 F4 E8 | z16 | z16 | z2 E4 E2 G6 G2 | F8 E2 F2 G2 E2 | F4 F4 E8 | z16 | %9
w: keit ist zu al- len|Din- gen nütz,|||die Gott- se- lig-|keit ist zu al- len|Din- gen nütz,||
 B6 B2 c6 c2 | B4 z4 z4 B2 A2 | G2 E2 B2 A2 G2 F2 E4- | E4 ^D4 E4 A4- | A2 G2 A2 B2 c8 | %14
w: die Gott- se- lig-|keit ist zu|al- len, ist zu al- len Din\-|* gen nütz, und|* hat die Ver- heiss-|
 B4 d2 B2 B2 G2 c4- | c4 B2 B2 A8 | G8 z8 | z16 | z4 G6 F2 G2 A2 | B8 A4 A2 F2 | F2 D2 F3 D D4 z4 | %21
w: ung die- ses und des künf\-|* ti- gen Le-|bens,||und hat die Ver-|heiss- ung die- ses|und des künf- ti- gen,|
 z4 d2 B2 B2 G2 B3 G | G4 z4 z4 B2 G2 | G2 E2 G3 E[Q:1/4=177] E4[Q:1/4=173] E4- | %24
w: die- ses und des künf- ti-|gen, die- ses|und des künf- ti- gen, künf\-|
[Q:1/4=170] E2[Q:1/4=168] E2[Q:1/4=164] G4[Q:1/4=158] F8 |[Q:1/4=155] E16 |] %26
w: * ti- gen Le-|bens.|
V:2
 z16 | z16 | z16 | z16 | z8 B6 B2 | c6 c2 B8 | z4 B2 A2 G2 F2 E4- | E4 ^D4 E8 | z16 | z8 E6 E2 | %10
w: ||||Die Gott|se- lig- keit|ist zu al- len Din\-|* gen nütz,||die Gott-|
 G6 G2 F8 | B2 A2 G2 F2 E2 F2 G2 E2 | F4 F4 E4 F4 | F2 E2 F2 (G4 FE F4) | G8 G2 E2 E2 C2 | %15
w: se- lig- keit|ist zu al- len, ist zu al- len|Din- gen nütz, and|hat die Ver- heiss\- * * *|ung die- ses und des|
 E3 E G2 (G4 FE F4) | G4 d2 B2 B2 G2 c4 | A4 G4 =F8 | E4 E6 D2 E2 F2 | G8 F8 | %20
w: künf- ti- gen Le\- * * *|bens, die- ses und des künf-|ti- gen Le-|bens, und hat die Ver-|heiss- ung|
 z4 A2 F2 F2 D2 F3 D | D4 z4 z4 d2 B2 | B2 G2 B3 G G4 z4 | z4 B2 G2 G2 E2 G4 | %24
w: die- ses und des künf- ti-|gen, die- ses|und des künf- ti- gen,|die- ses und des künf\-|
 G2 G2 E2 (E4 ^D^C D4) | E16 |] %26
w: * ti- gen Le\- * * *|bens.|
V:3
 z16 | z16 | z8 E,6 E,2 | =F,6 F,2 E,8 | A,,2 B,,2 C,2 A,,2 B,,4 B,,4 | A,,8 z8 | z16 | %7
w: ||Die Gott-|se- lig- keit|ist zu al- len Din- gen|nütz,||
 B,,6 B,,2 C,6 C,2 | B,,4 E,2 D,2 C,2 B,,2 A,,4- | A,,4 ^G,,4 A,,8 | z2 E,4 E,2 ^D,6 D,2 | %11
w: die Gott- se- lig-|keit ist zu al- len Din\-|* gen nütz,|die Gott- se- lig-|
 E,8 E,2 D,2 C,2 C,2 | B,,4 B,,4 E,4 D,4- | D,2 E,2 D,2 B,,2 A,,8 | G,,8 z8 | z16 | %16
w: keit ist zu al- len|Din- gen nütz, und|* hat die Ver- heiss-|ung||
 z8 G,2 E,2 E,2 C,2 | =F,4 E,2 E,2 D,8 | C,4 C,6 D,2 C,2 A,,2 | G,,8 D,8 | z8 z4 D,2 B,,2 | %21
w: die- ses und des|künf- ti- gen Le-|bens, und hat die Ver-|heiss- ung|die- ses|
 B,,2 G,,2 B,,3 G,, G,,4 z4 | z4 G,2 E,2 E,2 C,2 E,4- | E,2 E,2 E,4 z2 E,2 E,4- | %24
w: und des künf- ti- gen,|die- ses und des künf\-|* ti- gen, des künf\-|
 E,2 E,2 E,4 B,,8 | E,16 |] %26
w: * ti- gen Le-|bens.|
V:4
 E,8 A,,8 | E,6 D,2 C,4 C,4 | B,,8 E,8 | =F,6 F,2 E,8 | A,,2 B,,2 C,2 A,,2 x4- x4 | A,,8 E,8 | %6
w: |* 6 * *|||* * * * 7||
 ^D,8 E,4 C,4 | x4- x4 C,6 C,2 | B,,4 E,2 D,2 C,2 B,,2 A,,4- | A,,4 ^G,,4 A,,8 | E,8 ^D,6 D,2 | %11
w: 6 * *|4 * *||2 * *|* 6 *|
 E,8 E,2 D,2 C,4 | x4- x4 E,4 D,4- | D,2 E,2 D,2 B,,2 x4- x4 | G,,4 G,,6 C,4 A,,2 | %15
w: |4 * *|* * * 6 7||
 A,,4 B,,4 C,4 D,4 | G,,8 G,2 E,2 E,2 C,2 | =F,4 E,2 E,2 D,8 | C,4 C,6 D,2 C,2 A,,2 | G,,8 D,8 | %20
w: * 6 * *|||* * * * 6||
 D,8 D,6 B,,2 | B,,2 G,,2 B,,3 G,, G,,4 G,,4- | G,,4 G,2 E,2 E,2 C,2 E,4- | E,4 E,8 E,4- | %24
w: ||||
 E,2 E,2 E,4 B,,8 | E,16 |] %26
w: ||

